!! 00000] TT[WS
!!!OTL: Nao wugeng
!!!ARE: Asia, China, Shanxi Lingxian
!! Ethnic Group: Han
!! WII, 124 (1)
!!!SCT: J0590
!!!YEM: Copyright 1995, estate of Helmut Schaffrath.
**kern
*ICvox
*Ivox
*M2/4
*k[f#c#g#]
*A:
{4b
4f#
=1
4b
4f#
=2
8b
8a
8b
8cc#
=3
8b
8f#
4e
=4
8f#
8cc#
8a
8cc#
=5
8b
8f#
4a}
=6
{8a
8f#
8a
8f#
=7
8e
8d
4B
=8
8b
8a
4f#
=9
8b
8a
4f#
=10
8b
8a
8b
8cc#}
=11
{8b
8f#
4e
=12
8e
8f#
4a
=13
8g#
8e
4f#
=14
8e
8f#
8e
8f#
=15
8f#
4a
8c#
=16
2B}
==
!!!AGN: Xiaodiao. Qingge, Aisu
!!!ONB: ESAC (Essen Associative Code) Database: CHINA
!!!AMT: simple duple
!!!AIN: vox
!!!EED: Helmut Schaffrath
!!!EEV: 1.0
*-
